X:1
T:[ID 6-18]
T:[ID 6-18]
T:Bezeichnung standardisiert: J\"ager Sesken; Jager Sesken [J\"ager 6ken]
T:Urheber unbekannt Datum in der hier transkribierten schriftlichen Quelle: 1775
C:Urheber unbekannt
C:Datum in der hier transkribierten schriftlichen Quelle: 1775
L:1/8
M:2/4
K:D
V:1 treble 
V:1
 A | ddde | fffg | aa/b/ ag | f2 eA | ddde | fffg | a2 b/a/g/f/ | e3 :: f/g/ | aaaa | a2 e2 | %12
 fa/b/ ag/f/ | e3 A | ddee | ffeA | ddee | ffee | ffgg | aa/b/ag | f/a/f/d/ e/g/e/c/ | d3 :| %22

